apps/48/preferences-desktop-wallpaper.svg

<?xml version="1.0" encoding="UTF-8" standalone="no"?>
<!-- Created with Inkscape (http://www.inkscape.org/) -->

<svg
   xmlns:svg="http://www.w3.org/2000/svg"
   xmlns="http://www.w3.org/2000/svg"
   xmlns:xlink="http://www.w3.org/1999/xlink"
   version="1.1"
   width="48"
   height="48"
   id="svg3988">
  <defs
     id="defs3990">
    <linearGradient
       x1="32.892288"
       y1="8.0590115"
       x2="36.358372"
       y2="5.4565363"
       id="linearGradient3116"
       xlink:href="#linearGradient8589-4-3"
       gradientUnits="userSpaceOnUse"
       gradientTransform="matrix(1.4357745,0,0,1.5351225,-15.36265,3.6652927)" />
    <linearGradient
       id="linearGradient8589-4-3">
      <stop
         id="stop8591-7-2"
         style="stop-color:#fefefe;stop-opacity:1"
         offset="0" />
      <stop
         id="stop8593-2-4"
         style="stop-color:#cbcbcb;stop-opacity:1"
         offset="1" />
    </linearGradient>
    <linearGradient
       x1="12.9375"
       y1="8.4375"
       x2="15.25"
       y2="19.8125"
       id="linearGradient3076"
       xlink:href="#linearGradient6592-2-7-4-6"
       gradientUnits="userSpaceOnUse"
       gradientTransform="matrix(1.0952382,0,0,1.3333324,-2.2857144,2.4e-6)" />
    <linearGradient
       id="linearGradient6592-2-7-4-6">
      <stop
         id="stop6594-0-2-6-7"
         style="stop-color:#ffffff;stop-opacity:0.27450982"
         offset="0" />
      <stop
         id="stop6596-2-5-9-6"
         style="stop-color:#ffffff;stop-opacity:0"
         offset="1" />
    </linearGradient>
    <linearGradient
       x1="31.84656"
       y1="31.999964"
       x2="31.84656"
       y2="0.99868447"
       id="linearGradient2945"
       xlink:href="#linearGradient3298-628-126"
       gradientUnits="userSpaceOnUse"
       gradientTransform="matrix(1,0,0,0.90000142,-2.9999991,5.1499931)" />
    <linearGradient
       id="linearGradient3298-628-126">
      <stop
         id="stop2579"
         style="stop-color:#2f537b;stop-opacity:1"
         offset="0" />
      <stop
         id="stop2581"
         style="stop-color:#76a7dd;stop-opacity:1"
         offset="1" />
    </linearGradient>
    <linearGradient
       x1="-52.54295"
       y1="35.654442"
       x2="-52.54295"
       y2="2.1922007"
       id="linearGradient2947"
       xlink:href="#linearGradient3921"
       gradientUnits="userSpaceOnUse"
       gradientTransform="matrix(0.8074968,0,0,0.84226732,56.410234,4.1469595)" />
    <linearGradient
       id="linearGradient3921">
      <stop
         id="stop3923"
         style="stop-color:#1d528f;stop-opacity:1"
         offset="0" />
      <stop
         id="stop3925"
         style="stop-color:#54a6ff;stop-opacity:1"
         offset="1" />
    </linearGradient>
    <radialGradient
       cx="12.244348"
       cy="4.8630676"
       r="20.999998"
       fx="12.244348"
       fy="4.8630676"
       id="radialGradient3039"
       xlink:href="#linearGradient9936"
       gradientUnits="userSpaceOnUse"
       gradientTransform="matrix(1.4167634,0.01999111,-0.01319114,1.1175011,-5.3255699,6.599117)" />
    <linearGradient
       id="linearGradient9936">
      <stop
         id="stop9938"
         style="stop-color:#575757;stop-opacity:1"
         offset="0" />
      <stop
         id="stop9940"
         style="stop-color:#333333;stop-opacity:1"
         offset="1" />
    </linearGradient>
    <linearGradient
       x1="15.573899"
       y1="46.971004"
       x2="23.593679"
       y2="46.971004"
       id="linearGradient3043"
       xlink:href="#linearGradient3342"
       gradientUnits="userSpaceOnUse"
       gradientTransform="matrix(1.1176471,0,0,1,-2.3519696,-3.4710029)"
       spreadMethod="reflect" />
    <linearGradient
       id="linearGradient3342">
      <stop
         id="stop3344"
         style="stop-color:#ffffff;stop-opacity:0"
         offset="0" />
      <stop
         id="stop3346"
         style="stop-color:#ffffff;stop-opacity:1"
         offset="1" />
    </linearGradient>
    <linearGradient
       x1="318.42093"
       y1="93.29171"
       x2="318.42093"
       y2="78.342476"
       id="linearGradient3046"
       xlink:href="#linearGradient4510"
       gradientUnits="userSpaceOnUse"
       gradientTransform="matrix(1.4628351,0,0,0.7083672,-444.01094,-22.190508)" />
    <linearGradient
       id="linearGradient4510">
      <stop
         id="stop4512"
         style="stop-color:#a5a6aa;stop-opacity:1"
         offset="0" />
      <stop
         id="stop4514"
         style="stop-color:#e2e2e4;stop-opacity:1"
         offset="0.22134377" />
      <stop
         id="stop4516"
         style="stop-color:#595959;stop-opacity:1"
         offset="1" />
    </linearGradient>
    <linearGradient
       x1="24.687456"
       y1="40.812702"
       x2="24.739107"
       y2="33.999802"
       id="linearGradient3048"
       xlink:href="#linearGradient4518"
       gradientUnits="userSpaceOnUse"
       gradientTransform="matrix(1.116455,0,0,1,-2.7949567,2.000003)" />
    <linearGradient
       id="linearGradient4518">
      <stop
         id="stop4520"
         style="stop-color:#7e7e7e;stop-opacity:0.94901961"
         offset="0" />
      <stop
         id="stop4522"
         style="stop-color:#969696;stop-opacity:1"
         offset="1" />
    </linearGradient>
    <linearGradient
       id="linearGradient10691-1">
      <stop
         id="stop10693-3"
         style="stop-color:#000000;stop-opacity:1"
         offset="0" />
      <stop
         id="stop10695-1"
         style="stop-color:#000000;stop-opacity:0"
         offset="1" />
    </linearGradient>
    <radialGradient
       cx="6.702713"
       cy="73.615715"
       r="7.228416"
       fx="6.702713"
       fy="73.615715"
       id="radialGradient3986"
       xlink:href="#linearGradient10691-1"
       gradientUnits="userSpaceOnUse"
       gradientTransform="matrix(1.9368007,0,0,0.4150287,11.018182,13.447365)" />
  </defs>
  <g
     id="layer1">
    <path
       d="m 38,44 c 0,1.656855 -6.268014,3 -14.000001,3 C 16.268013,47 10,45.656855 10,44 10,42.343146 16.268013,41 23.999999,41 31.731986,41 38,42.343146 38,44 l 0,0 z"
       id="path2589"
       style="opacity:0.4;fill:url(#radialGradient3986);fill-opacity:1;fill-rule:nonzero;stroke:none;stroke-width:0.80000001;marker:none;visibility:visible;display:inline;overflow:visible" />
    <path
       d="m 17.859462,36.249806 c 0,0 0.141772,4.25777 -0.565344,5.250194 -0.707116,0.992424 -2.114148,1.004 -2.114148,1.004 -0.902888,0.104262 -0.910357,1.996 0,1.996 l 17.63999,0 c 0.910357,0 0.903077,-1.893068 0,-1.996 0,0 -1.406971,-0.01158 -2.114077,-1.004 -0.707106,-0.992422 -0.565415,-5.250194 -0.565415,-5.250194 l -12.281006,0 z"
       id="rect1789"
       style="fill:url(#linearGradient3046);fill-opacity:1;stroke:url(#linearGradient3048);stroke-width:1;stroke-linecap:round;stroke-linejoin:round;stroke-miterlimit:4;stroke-opacity:1;stroke-dasharray:none;stroke-dashoffset:0.50000001;display:inline;enable-background:new" />
    <path
       d="m 15.612977,43.5 16.774046,0"
       id="path3340"
       style="fill:none;stroke:url(#linearGradient3043);stroke-width:1px;stroke-linecap:square;stroke-linejoin:miter;stroke-opacity:1" />
    <rect
       width="46.999763"
       height="32.99976"
       rx="1.0444448"
       ry="1"
       x="0.5001179"
       y="3.5001206"
       id="rect2722"
       style="fill:#1a1a1a;fill-opacity:1;stroke:#000000;stroke-width:1.00023937;stroke-linecap:round;stroke-linejoin:round;stroke-miterlimit:4;stroke-opacity:1;stroke-dasharray:none;stroke-dashoffset:0.50000001" />
    <rect
       width="42"
       height="28"
       x="3.0000002"
       y="6"
       id="rect2716"
       style="fill:url(#radialGradient3039);fill-opacity:1;fill-rule:evenodd;stroke:none;display:inline;enable-background:new" />
    <path
       d="m 3.4999609,6.499961 c 8.0202901,0 16.1834471,0.087273 24.2037371,0.087273 1.40694,0.4368415 14.822562,9.97831 16.796302,13.424251 0,10.546855 0,2.941699 0,13.488554 -11.666693,0 -29.333349,0 -41.0000391,0 0,-13.500045 0,-13.500034 0,-27.000078 z"
       id="path4322"
       style="fill:url(#linearGradient2945);fill-opacity:1;stroke:url(#linearGradient2947);stroke-width:0.9999218;stroke-linecap:butt;stroke-linejoin:round;stroke-miterlimit:4;stroke-opacity:1;stroke-dasharray:none;stroke-dashoffset:0;display:inline" />
    <path
       d="M 1,4 47,4 47,14.666672 1,24 1,4 z"
       id="rect6588"
       style="fill:url(#linearGradient3076);fill-opacity:1;stroke:none" />
    <g
       transform="translate(0.85323036,-0.0331897)"
       id="g3053">
      <path
         d="m 24.420406,6.6412702 c 3.638583,-0.3502006 2.843232,14.0200358 2.843232,14.0200358 0,0 16.093219,-0.848461 16.524807,1.954338 C 47.639192,19.34674 27.134938,5.8545703 24.420406,6.6412702 z"
         id="path4891"
         style="opacity:0.2;fill:#000000;fill-opacity:1;fill-rule:evenodd;stroke:#000000;stroke-width:1.5;stroke-linecap:butt;stroke-linejoin:round;stroke-miterlimit:4;stroke-opacity:0.44444442;stroke-dasharray:none;display:inline" />
      <path
         d="m 25.944055,6.0413691 c 3.568454,0.655556 3.193387,12.1626569 3.193387,12.1626569 0,0 14.671274,-0.7593 15.026417,2.627962 C 45.086275,18.838906 33.505326,8.7639773 27.809289,6.4954642 27.077374,6.2039704 26.442625,6.0413691 25.944055,6.0413691 z"
         id="path4893"
         style="fill:url(#linearGradient3116);fill-opacity:1;fill-rule:evenodd;stroke:none;display:inline" />
    </g>
  </g>
</svg>

<?xml version="1.0" encoding="UTF-8" standalone="no"?>
<!-- Created with Inkscape (http://www.inkscape.org/) -->
<svg
   xmlns:dc="http://purl.org/dc/elements/1.1/"
   xmlns:cc="http://creativecommons.org/ns#"
   xmlns:rdf="http://www.w3.org/1999/02/22-rdf-syntax-ns#"
   xmlns:svg="http://www.w3.org/2000/svg"
   xmlns="http://www.w3.org/2000/svg"
   xmlns:xlink="http://www.w3.org/1999/xlink"
   xmlns:sodipodi="http://sodipodi.sourceforge.net/DTD/sodipodi-0.dtd"
   xmlns:inkscape="http://www.inkscape.org/namespaces/inkscape"
   version="1.1"
   width="48"
   height="48"
   id="svg3988"
   sodipodi:version="0.32"
   inkscape:version="0.46"
   sodipodi:docname="preferences-desktop-wallpaper.svg"
   inkscape:output_extension="org.inkscape.output.svg.inkscape">
  <metadata
     id="metadata53">
    <rdf:RDF>
      <cc:Work
         rdf:about="">
        <dc:format>image/svg+xml</dc:format>
        <dc:type
           rdf:resource="http://purl.org/dc/dcmitype/StillImage" />
      </cc:Work>
    </rdf:RDF>
  </metadata>
  <sodipodi:namedview
     inkscape:window-height="793"
     inkscape:window-width="1440"
     inkscape:pageshadow="2"
     inkscape:pageopacity="0.0"
     guidetolerance="10.0"
     gridtolerance="10.0"
     objecttolerance="10.0"
     borderopacity="1.0"
     bordercolor="#666666"
     pagecolor="#ffffff"
     id="base"
     showgrid="false"
     inkscape:zoom="12.166667"
     inkscape:cx="8.6301378"
     inkscape:cy="24.000001"
     inkscape:window-x="0"
     inkscape:window-y="24"
     inkscape:current-layer="svg3988" />
  <defs
     id="defs3990">
    <linearGradient
       id="linearGradient8589-4-3">
      <stop
         id="stop8591-7-2"
         style="stop-color:#fefefe;stop-opacity:1"
         offset="0" />
      <stop
         id="stop8593-2-4"
         style="stop-color:#cbcbcb;stop-opacity:1"
         offset="1" />
    </linearGradient>
    <linearGradient
       id="linearGradient6592-2-7-4-6">
      <stop
         id="stop6594-0-2-6-7"
         style="stop-color:#ffffff;stop-opacity:0.27450982"
         offset="0" />
      <stop
         id="stop6596-2-5-9-6"
         style="stop-color:#ffffff;stop-opacity:0"
         offset="1" />
    </linearGradient>
    <linearGradient
       id="linearGradient3298-628-126">
      <stop
         id="stop2579"
         style="stop-color:#2f537b;stop-opacity:1"
         offset="0" />
      <stop
         id="stop2581"
         style="stop-color:#76a7dd;stop-opacity:1"
         offset="1" />
    </linearGradient>
    <linearGradient
       id="linearGradient3921">
      <stop
         id="stop3923"
         style="stop-color:#1d528f;stop-opacity:1"
         offset="0" />
      <stop
         id="stop3925"
         style="stop-color:#54a6ff;stop-opacity:1"
         offset="1" />
    </linearGradient>
    <linearGradient
       id="linearGradient9936">
      <stop
         id="stop9938"
         style="stop-color:#575757;stop-opacity:1"
         offset="0" />
      <stop
         id="stop9940"
         style="stop-color:#333333;stop-opacity:1"
         offset="1" />
    </linearGradient>
    <linearGradient
       id="linearGradient3342">
      <stop
         id="stop3344"
         style="stop-color:#ffffff;stop-opacity:0"
         offset="0" />
      <stop
         id="stop3346"
         style="stop-color:#ffffff;stop-opacity:1"
         offset="1" />
    </linearGradient>
    <linearGradient
       id="linearGradient4510">
      <stop
         id="stop4512"
         style="stop-color:#a5a6aa;stop-opacity:1"
         offset="0" />
      <stop
         id="stop4514"
         style="stop-color:#e2e2e4;stop-opacity:1"
         offset="0.22134377" />
      <stop
         id="stop4516"
         style="stop-color:#595959;stop-opacity:1"
         offset="1" />
    </linearGradient>
    <linearGradient
       id="linearGradient4518">
      <stop
         id="stop4520"
         style="stop-color:#7e7e7e;stop-opacity:0.94901961"
         offset="0" />
      <stop
         id="stop4522"
         style="stop-color:#969696;stop-opacity:1"
         offset="1" />
    </linearGradient>
    <linearGradient
       id="linearGradient10691-1">
      <stop
         id="stop10693-3"
         style="stop-color:#000000;stop-opacity:1"
         offset="0" />
      <stop
         id="stop10695-1"
         style="stop-color:#000000;stop-opacity:0"
         offset="1" />
    </linearGradient>
    <linearGradient
       inkscape:collect="always"
       xlink:href="#linearGradient6592-2-7-4-6"
       id="linearGradient2432"
       gradientUnits="userSpaceOnUse"
       gradientTransform="matrix(1.0952382,0,0,1.3333324,-2.2857144,2.4e-6)"
       x1="12.9375"
       y1="8.4375"
       x2="15.25"
       y2="19.8125" />
    <linearGradient
       inkscape:collect="always"
       xlink:href="#linearGradient3298-628-126"
       id="linearGradient2435"
       gradientUnits="userSpaceOnUse"
       gradientTransform="matrix(1,0,0,0.9000014,-2.9999991,5.1499931)"
       x1="31.84656"
       y1="31.999964"
       x2="31.84656"
       y2="0.99868447" />
    <linearGradient
       inkscape:collect="always"
       xlink:href="#linearGradient3921"
       id="linearGradient2437"
       gradientUnits="userSpaceOnUse"
       gradientTransform="matrix(0.8074968,0,0,0.8422673,56.410234,4.1469595)"
       x1="-52.54295"
       y1="35.654442"
       x2="-52.54295"
       y2="2.1922007" />
    <radialGradient
       inkscape:collect="always"
       xlink:href="#linearGradient9936"
       id="radialGradient2440"
       gradientUnits="userSpaceOnUse"
       gradientTransform="matrix(1.4167634,1.999111e-2,-1.319114e-2,1.1175011,-5.3255699,6.599117)"
       cx="12.244348"
       cy="4.8630676"
       fx="12.244348"
       fy="4.8630676"
       r="20.999998" />
    <linearGradient
       inkscape:collect="always"
       xlink:href="#linearGradient3342"
       id="linearGradient2444"
       gradientUnits="userSpaceOnUse"
       gradientTransform="matrix(1.1176471,0,0,1,-2.3519696,-3.4710029)"
       spreadMethod="reflect"
       x1="15.573899"
       y1="46.971004"
       x2="23.593679"
       y2="46.971004" />
    <linearGradient
       inkscape:collect="always"
       xlink:href="#linearGradient4510"
       id="linearGradient2447"
       gradientUnits="userSpaceOnUse"
       gradientTransform="matrix(1.4628351,0,0,0.7083672,-444.01094,-22.190508)"
       x1="318.42093"
       y1="93.29171"
       x2="318.42093"
       y2="78.342476" />
    <linearGradient
       inkscape:collect="always"
       xlink:href="#linearGradient4518"
       id="linearGradient2449"
       gradientUnits="userSpaceOnUse"
       gradientTransform="matrix(1.116455,0,0,1,-2.7949567,2.000003)"
       x1="24.687456"
       y1="40.812702"
       x2="24.739107"
       y2="33.999802" />
    <radialGradient
       inkscape:collect="always"
       xlink:href="#linearGradient10691-1"
       id="radialGradient2452"
       gradientUnits="userSpaceOnUse"
       gradientTransform="matrix(1.9368007,0,0,0.4150287,11.018182,13.447365)"
       cx="6.702713"
       cy="73.615715"
       fx="6.702713"
       fy="73.615715"
       r="7.228416" />
    <linearGradient
       inkscape:collect="always"
       xlink:href="#linearGradient8589-4-3"
       id="linearGradient3225"
       gradientUnits="userSpaceOnUse"
       gradientTransform="matrix(1.4357745,0,0,1.5351225,-14.50942,3.632103)"
       x1="32.892288"
       y1="8.0590115"
       x2="36.358372"
       y2="5.4565363" />
    <filter
       inkscape:collect="always"
       id="filter3198"
       x="-0.08671205"
       width="1.1734241"
       y="-0.10751635"
       height="1.2150327">
      <feGaussianBlur
         inkscape:collect="always"
         stdDeviation="0.71710775"
         id="feGaussianBlur3200" />
    </filter>
  </defs>
  <path
     style="opacity:0.3;fill:url(#radialGradient2452);fill-opacity:1;fill-rule:nonzero;stroke:none;stroke-width:0.80000000999999998;marker:none;visibility:visible;display:inline;overflow:visible"
     id="path2589"
     d="M 38,44 C 38,45.656855 31.731986,47 23.999999,47 C 16.268013,47 10,45.656855 10,44 C 10,42.343146 16.268013,41 23.999999,41 C 31.731986,41 38,42.343146 38,44 L 38,44 z" />
  <path
     style="fill:url(#linearGradient2447);fill-opacity:1;stroke:url(#linearGradient2449);stroke-width:1;stroke-linecap:round;stroke-linejoin:round;stroke-miterlimit:4;stroke-dasharray:none;stroke-dashoffset:0.50000001;stroke-opacity:1;display:inline;enable-background:new"
     id="rect1789"
     d="M 17.859462,36.249806 C 17.859462,36.249806 18.001234,40.507576 17.294118,41.5 C 16.587002,42.492424 15.17997,42.504 15.17997,42.504 C 14.277082,42.608262 14.269613,44.5 15.17997,44.5 L 32.81996,44.5 C 33.730317,44.5 33.723037,42.606932 32.81996,42.504 C 32.81996,42.504 31.412989,42.49242 30.705883,41.5 C 29.998777,40.507578 30.140468,36.249806 30.140468,36.249806 L 17.859462,36.249806 L 17.859462,36.249806 z" />
  <path
     style="fill:none;stroke:url(#linearGradient2444);stroke-width:1px;stroke-linecap:square;stroke-linejoin:miter;stroke-opacity:1"
     id="path3340"
     d="M 15.612977,43.5 L 32.387023,43.5" />
  <rect
     style="fill:#1a1a1a;fill-opacity:1;stroke:#000000;stroke-width:1.00023937;stroke-linecap:round;stroke-linejoin:round;stroke-miterlimit:4;stroke-dasharray:none;stroke-dashoffset:0.50000001;stroke-opacity:1"
     id="rect2722"
     y="3.5001206"
     x="0.5001179"
     ry="1"
     rx="1.0444448"
     height="32.99976"
     width="46.999763" />
  <rect
     style="fill:url(#radialGradient2440);fill-opacity:1;fill-rule:evenodd;stroke:none;display:inline;enable-background:new"
     id="rect2716"
     y="6"
     x="3.0000002"
     height="28"
     width="42" />
  <path
     style="fill:url(#linearGradient2435);fill-opacity:1;stroke:url(#linearGradient2437);stroke-width:0.9999218;stroke-linecap:butt;stroke-linejoin:round;stroke-miterlimit:4;stroke-dasharray:none;stroke-dashoffset:0;stroke-opacity:1;display:inline"
     id="path4322"
     d="M 3.4999609,6.499961 C 11.520251,6.499961 19.683408,6.587234 27.703698,6.587234 C 29.110638,7.0240755 42.52626,16.565544 44.5,20.011485 C 44.5,30.55834 44.5,22.953184 44.5,33.500039 C 32.833307,33.500039 15.166651,33.500039 3.4999609,33.500039 C 3.4999609,19.999994 3.4999609,20.000005 3.4999609,6.499961 L 3.4999609,6.499961 z" />
  <path
     style="fill:url(#linearGradient2432);fill-opacity:1;stroke:none"
     id="rect6588"
     d="M 1,4 L 47,4 L 47,14.666672 L 1,24 L 1,4 z" />
  <path
     d="M 25.684596,5.7861626 C 29.323179,5.435962 28.527828,19.806198 28.527828,19.806198 C 28.527828,19.806198 44.621047,18.957737 45.052635,21.760536 C 48.903382,18.491632 28.399128,4.9994627 25.684596,5.7861626 z"
     id="path4891"
     style="opacity:0.29999999999999999;fill:#000000;fill-opacity:1;fill-rule:evenodd;stroke:none;stroke-width:1.50000000000000000;stroke-linecap:butt;stroke-linejoin:round;stroke-miterlimit:4;stroke-dasharray:none;stroke-opacity:0.44444442000000001;display:inline;filter:url(#filter3198)" />
  <path
     d="M 26.797285,6.0081794 C 30.365739,6.6637354 29.990672,18.170836 29.990672,18.170836 C 29.990672,18.170836 44.661946,17.411536 45.017089,20.798798 C 45.939505,18.805716 34.358556,8.7307876 28.662519,6.4622745 C 27.930604,6.1707807 27.295855,6.0081794 26.797285,6.0081794 z"
     id="path4893"
     style="fill:url(#linearGradient3225);fill-opacity:1;fill-rule:evenodd;stroke:none;display:inline" />
</svg>
